packages/icons/web/v2/eftpos_32.svg

<svg width="32" height="24" viewBox="0 0 32 24" fill="none" xmlns="http://www.w3.org/2000/svg">
  <rect x="0.5" y="0.5" width="31" height="23" rx="3.5" fill="white" stroke="#CCCCCC"/>
  <path d="M11.4926 5.76061C9.66791 7.22686 8.5 9.47702 8.5 12C8.5 16.4183 12.0817 20 16.5 20C19.4901 20 22.1548 18.3297 23.4643 15.9272C23.5055 15.8513 23.5282 15.7685 23.4742 15.7002C23.3798 15.5808 23.2366 15.6382 23.1091 15.7145C21.9102 16.4357 20.8848 16.7726 19.4266 16.7726C16.2494 16.7726 13.6738 14.5058 13.6738 11.7094C13.6738 9.49373 15.1665 7.56345 17.3735 6.55561C16.7804 5.42454 15.4675 4.96434 14.1795 4.96434C13.1348 4.9644 12.1065 5.26726 11.4926 5.76061Z" fill="url(#paint0_linear_21980_148)"/>
  <path d="M23.3717 9.65355C23.3717 12.3109 20.8338 14.4651 17.703 14.4651C17.2474 14.4651 16.014 14.4024 15.1313 13.9916C14.8802 13.8748 14.906 13.7277 15.0785 13.6565C15.4797 13.491 18.6259 12.8873 18.6259 9.65355C18.6259 6.41988 15.2871 4.05552 11.4927 5.76051C12.8634 4.65902 14.6048 3.99992 16.5001 3.99992C20.2154 3.99992 23.3717 6.53113 23.3717 9.65355Z" fill="#E50056"/>
  <defs>
  <linearGradient id="paint0_linear_21980_148" x1="16.0728" y1="14.6368" x2="13.0114" y2="-1.11275" gradientUnits="userSpaceOnUse">
    <stop stop-color="#E50056"/>
    <stop offset="0.141092" stop-color="#E50056"/>
    <stop offset="0.75" stop-color="#1F0038"/>
    <stop offset="1" stop-color="#1F0038"/>
  </linearGradient>
  </defs>
</svg>

<svg xmlns="http://www.w3.org/2000/svg" width="32" height="24" fill="none" viewBox="0 0 32 24">
    <path fill="#fff" d="M0 0h32v24H0z"/>
    <rect width="31" height="23" x=".5" y=".5" fill="#fff" stroke="#ccc" rx="3.5"/>
    <path fill="url(#eftpos_32_svg__a)" d="M11.493 5.76A8 8 0 0 0 16.5 20c2.99 0 5.655-1.67 6.964-4.073.042-.076.064-.159.01-.227-.094-.12-.237-.062-.365.014-1.199.722-2.224 1.059-3.682 1.059-3.178 0-5.753-2.267-5.753-5.064 0-2.215 1.492-4.146 3.7-5.153-.594-1.131-1.906-1.592-3.194-1.592-1.045 0-2.073.303-2.687.797"/>
    <path fill="#e50056" d="M23.372 9.654c0 2.657-2.538 4.811-5.67 4.811-.455 0-1.688-.062-2.57-.473-.252-.117-.226-.264-.054-.336.402-.165 3.548-.769 3.548-4.002 0-3.234-3.339-5.598-7.133-3.893A7.97 7.97 0 0 1 16.5 4c3.715 0 6.872 2.531 6.872 5.654"/>
    <defs>
        <linearGradient id="eftpos_32_svg__a" x1="16.073" x2="13.011" y1="14.637" y2="-1.113" gradientUnits="userSpaceOnUse">
            <stop stop-color="#e50056"/>
            <stop offset=".141" stop-color="#e50056"/>
            <stop offset=".75" stop-color="#1f0038"/>
            <stop offset="1" stop-color="#1f0038"/>
        </linearGradient>
    </defs>
</svg>
